.local/share/icons/Gruvbox-Plus-Dark/mimetypes/scalable/application-web-template.svg

<svg width="256" height="256" viewBox="0 0 256 256" fill="none" xmlns="http://www.w3.org/2000/svg">
<g opacity="0.4" filter="url(#filter0_f)">
<path d="M55.0839 15.5636H155.608L216.009 75.7129L216.011 224.609C216.011 233.52 208.749 240.737 199.838 240.737H55.0838C46.1734 240.737 39 233.564 39 224.654V31.6474C39 22.737 46.1734 15.5636 55.0838 15.5636H55.0839Z" fill="#282828"/>
</g>
<path d="M55.0839 15H155.608L216.009 75.1493L216.011 224.045C216.011 232.956 208.749 240.174 199.838 240.174H55.0838C46.1734 240.174 39 233 39 224.09V31.0838C39 22.1734 46.1734 15 55.0838 15H55.0839Z" fill="#ebdbb2"/>
<g opacity="0.4">
<path fill-rule="evenodd" clip-rule="evenodd" d="M39.068 88.9434C38.818 84.3824 39.13 57.6944 42.193 55.0074V55.0054L56.664 69.4104H63.998V60.6504H78.666L87.466 69.4104V75.2504H80.131L71.331 84.0094V89.8474L77.199 95.6874H83.065V84.0094H96.268L105.068 92.7694L96.266 102.986L100.666 107.366H91.865L83.065 116.126H77.198L68.398 124.884V142.402L53.73 127.803H44.93L39.063 121.963V106.589C39.063 104.326 39.049 102.168 39.0355 100.097C39.0096 96.1091 38.9858 92.44 39.068 88.9434ZM60.255 46.7574C61.461 46.2374 82.406 45.9494 83.131 46.0074L83.065 54.8124H68.398L60.255 46.7574ZM147.602 88.3884V84.0084L152.002 79.6284V88.3884H147.602ZM193.071 174.519V165.365L198.939 159.921V174.52H193.071V174.519ZM132.935 46.0524H99.955C99.6642 46.0524 99.417 46.0616 99.1699 46.0709C98.9371 46.0797 98.7043 46.0884 98.435 46.0894L93.333 51.8924L102.133 60.6504V69.8044L112.401 81.0894H118.268V75.2494L127.068 66.4894V60.6494L132.935 54.8114V46.0524ZM125.601 78.1694H130.001L134.401 82.5494H125.601V78.1694ZM85.999 126.344H81.599L77.199 130.724H85.999V126.344ZM165.203 119.045L182.805 119.045L182.805 124.884L197.472 139.483H203.339L188.671 154.081L188.87 170.85L170.476 189.157L159.336 177.439V159.921L156.403 157.002V152.622L152.003 148.243H141.735L134.402 140.943V126.344L144.669 116.125H162.269L165.203 119.045ZM81.4438 209.079C81.2701 209.063 81.0965 209.047 80.91 209.034L80.909 209.035L78.665 206.635V187.658L83.064 183.278L83.104 170.19L71.33 159.922V145.322L77.198 139.482H91.866L97.733 145.322H109.467L115.333 151.162V162.84L110.933 167.22V171.598L102.133 180.358V186.198L83.065 203.717L83.093 209.153C82.9384 209.145 82.7575 209.143 82.5764 209.141C82.3887 209.139 82.2009 209.138 82.042 209.128C81.8312 209.116 81.638 209.098 81.445 209.079L81.4438 209.079ZM102.133 100.067L106.533 95.6874L110.934 100.067L109.467 101.527H108L106.533 100.067H102.133Z" fill="url(#paint0_linear)"/>
<path d="M215.073 121.964V106.59C215.073 105.953 215.078 104.991 215.085 103.777C215.119 97.4559 215.191 84.2773 214.756 74.2564L203.5 63.5714H197.471L188.671 72.3314L182.805 66.4914H165.204L156.404 75.2514V82.5494H165.204V78.1694H171.071V84.0094L168.136 86.9284L156.403 87.1254L152.003 91.3084H146.136V97.1484L141.735 101.528V110.285H150.535L156.403 104.446H162.27V107.366L168.136 113.206H171.071V110.285L165.204 104.446H171.071L176.936 110.285H184.27L179.87 105.906L184.27 101.527H188.671L193.071 105.907H188.671L184.271 110.285L188.591 114.585L188.671 119.045H182.805L200.406 136.563H203.338L206.272 133.644L212.139 127.804L206.272 121.964H215.073Z" fill="url(#paint1_linear)"/>
</g>
<path fill-rule="evenodd" clip-rule="evenodd" d="M155.608 20.3191H55.0839C49.1112 20.3191 44.3191 25.1111 44.3191 31.0838V224.09C44.3191 230.063 49.1111 234.855 55.0838 234.855H199.838C205.83 234.855 210.692 229.999 210.692 224.046V75.1493L155.608 20.3191ZM155.608 15H55.0839C46.1735 15 39 22.1734 39 31.0838V224.09C39 233 46.1734 240.174 55.0838 240.174H199.838C208.749 240.174 216.011 232.956 216.011 224.045L216.009 75.1493L155.608 15Z" fill="url(#paint2_linear)"/>
<path fill-rule="evenodd" clip-rule="evenodd" d="M128 68.0004C133.508 68.0004 138.822 68.716 143.937 70.1393C149.057 71.5715 153.84 73.5748 158.294 76.1771C162.733 78.7651 166.818 81.9155 170.45 85.5503C174.086 89.1805 177.237 93.2663 179.823 97.7058C182.444 102.212 184.473 107.038 185.861 112.064C187.289 117.183 188 122.492 188 128C188 133.508 187.284 138.821 185.861 143.937C184.474 148.962 182.444 153.788 179.823 158.294C177.235 162.733 174.085 166.818 170.451 170.45C166.821 174.086 162.735 177.237 158.295 179.823C153.788 182.444 148.962 184.474 143.937 185.861C138.747 187.297 133.385 188.016 128 188C122.497 188 117.179 187.284 112.063 185.861C107.038 184.474 102.212 182.444 97.7058 179.823C93.2672 177.235 89.1816 174.085 85.5503 170.45C81.9152 166.819 78.7647 162.733 76.177 158.294C73.5616 153.796 71.534 148.981 70.1437 143.967C68.7022 138.768 67.981 133.395 68.0004 128C68.0004 122.492 68.717 117.179 70.1448 112.064C71.5305 107.038 73.5583 102.213 76.1781 97.7058C78.7658 93.2674 81.9159 89.1817 85.5503 85.5503C89.1811 81.9131 93.2685 78.7624 97.7102 76.1771C102.207 73.5604 107.021 71.5313 112.035 70.1393C117.233 68.6994 122.605 67.9797 128 68.0004ZM75.5037 128C75.5037 133.196 76.2237 138.198 77.6681 143.002H98.9391C98.3169 138.026 98.0046 133.016 98.0002 128C97.998 122.986 98.3113 117.978 98.9391 113.002H77.6681C76.2159 117.869 75.4867 122.922 75.5037 128ZM110.835 78.3715C107.549 79.509 104.388 80.9804 101.402 82.7626C98.4195 84.5419 95.614 86.6031 93.0247 88.9181C90.4363 91.2313 88.0806 93.7924 85.9914 96.5647C83.8891 99.3472 82.083 102.342 80.6025 105.499H100.114C100.592 103.12 101.14 100.756 101.756 98.4091C102.382 96.0184 103.136 93.6628 104.013 91.3525C104.886 89.0404 105.893 86.7811 107.028 84.5859C108.145 82.425 109.417 80.348 110.835 78.3715ZM80.5981 150.497C82.0765 153.657 83.8827 156.653 85.9869 159.435C90.1749 164.997 95.4102 169.686 101.398 173.238C104.382 175.022 107.543 176.494 110.83 177.629C109.412 175.654 108.139 173.579 107.023 171.419C105.884 169.225 104.876 166.965 104.005 164.652C103.131 162.339 102.378 159.982 101.748 157.591C101.129 155.247 100.581 152.883 100.106 150.506H80.5981V150.497ZM149.503 143.002C149.819 140.501 150.063 138.009 150.24 135.529C150.597 130.516 150.597 125.485 150.24 120.472C150.063 117.988 149.819 115.503 149.503 113.002H106.497C106.186 115.486 105.941 117.976 105.765 120.472C105.408 125.484 105.408 130.516 105.765 135.528C105.942 138.012 106.186 140.497 106.498 143.002H149.503ZM128 75.4993C126.098 75.4962 124.235 76.0463 122.64 77.0826C120.981 78.1393 119.449 79.5248 118.042 81.2426C116.636 82.9648 115.377 84.9059 114.261 87.0748C112.134 91.2446 110.416 95.6114 109.133 100.114C108.622 101.894 108.172 103.692 107.786 105.504H148.219C147.358 101.473 146.182 97.5155 144.703 93.6681C143.835 91.4192 142.847 89.2183 141.743 87.0748C140.694 85.0026 139.427 83.0476 137.966 81.2426C136.665 79.6182 135.111 78.2136 133.364 77.0826C131.767 76.0472 129.904 75.4976 128 75.5004V75.4993ZM128 180.501C129.916 180.501 131.706 179.974 133.36 178.918C135.023 177.861 136.556 176.475 137.962 174.758C139.369 173.035 140.628 171.094 141.743 168.926C143.871 164.756 145.589 160.389 146.872 155.887C147.383 154.105 147.83 152.309 148.214 150.498H107.79C108.65 154.528 109.824 158.485 111.301 162.332C112.172 164.581 113.16 166.782 114.261 168.926C115.377 171.094 116.636 173.035 118.042 174.758C119.449 176.475 120.981 177.865 122.64 178.918C124.303 179.97 126.089 180.501 128 180.501ZM175.406 105.499C173.926 102.341 172.12 99.3469 170.018 96.5647C165.83 91.0032 160.594 86.3145 154.607 82.7626C151.622 80.9773 148.462 79.5058 145.174 78.3715C146.592 80.3469 147.864 82.4227 148.981 84.5826C150.119 86.7768 151.127 89.0359 152 91.3481C152.873 93.6612 153.627 96.0181 154.257 98.4091C154.88 100.792 155.428 103.154 155.894 105.495H175.405L175.406 105.499ZM145.167 177.629C148.453 176.494 151.614 175.023 154.598 173.238C157.582 171.458 160.389 169.397 162.981 167.082C165.569 164.769 167.923 162.208 170.012 159.435C172.114 156.653 173.92 153.659 175.401 150.501H155.887C155.408 152.88 154.86 155.244 154.244 157.591C153.619 159.982 152.867 162.338 151.992 164.649C151.119 166.961 150.112 169.22 148.977 171.415C147.86 173.577 146.587 175.654 145.167 177.629ZM180.5 128C180.5 122.805 179.775 117.802 178.335 113.002H157.067C157.687 117.978 157.999 122.987 158.001 128C158.004 133.016 157.692 138.026 157.067 143.002H178.338C179.777 138.198 180.502 133.196 180.502 128H180.5Z" fill="url(#paint3_linear)"/>
<path opacity="0.25" d="M155.608 17V61.2306C155.608 70.141 162.867 77.1605 171.777 77.1605L216.009 77.1493V75.1493L155.608 17Z" fill="#282828"/>
<path d="M155.608 15V59.2306C155.608 68.141 162.867 75.1605 171.777 75.1605L216.009 75.1493L155.608 15Z" fill="url(#paint4_linear)"/>
<defs>
<filter id="filter0_f" x="23.8778" y="0.441412" width="207.255" height="255.418" filterUnits="userSpaceOnUse" color-interpolation-filters="sRGB">
<feFlood flood-opacity="0" result="BackgroundImageFix"/>
<feBlend mode="normal" in="SourceGraphic" in2="BackgroundImageFix" result="shape"/>
<feGaussianBlur stdDeviation="7.5611" result="effect1_foregroundBlur"/>
</filter>
<linearGradient id="paint0_linear" x1="125.967" y1="45.9377" x2="126.345" y2="209.692" gradientUnits="userSpaceOnUse">
<stop stop-color="#458588"/>
<stop offset="1" stop-color="#076678"/>
</linearGradient>
<linearGradient id="paint1_linear" x1="125.967" y1="45.9377" x2="126.345" y2="209.692" gradientUnits="userSpaceOnUse">
<stop stop-color="#458588"/>
<stop offset="1" stop-color="#076678"/>
</linearGradient>
<linearGradient id="paint2_linear" x1="126.411" y1="14.914" x2="127.127" y2="240.916" gradientUnits="userSpaceOnUse">
<stop stop-color="#458588"/>
<stop offset="1" stop-color="#076678"/>
</linearGradient>
<linearGradient id="paint3_linear" x1="127.258" y1="67.9541" x2="127.558" y2="188.396" gradientUnits="userSpaceOnUse">
<stop stop-color="#458588"/>
<stop offset="1" stop-color="#076678"/>
</linearGradient>
<linearGradient id="paint4_linear" x1="185.435" y1="14.977" x2="185.585" y2="75.3591" gradientUnits="userSpaceOnUse">
<stop stop-color="#458588"/>
<stop offset="1" stop-color="#076678"/>
</linearGradient>
</defs>
</svg>

<svg width="256" height="256" fill="none" version="1.1" viewBox="0 0 256 256" xmlns="http://www.w3.org/2000/svg">
  <path d="m55.08 15h100.5l60.4 60.15 2e-3 148.9c0 8.911-7.262 16.13-16.17 16.13h-144.8c-8.91 0-16.08-7.174-16.08-16.08v-193c0-8.91 7.173-16.08 16.08-16.08h1e-4z" fill="#ebdbb2"/>
  <path d="m83.13 46.01c-0.725-0.058-21.67 0.23-22.88 0.75l8.143 8.055h14.67zm16.82 0.04492c-0.2908 0-0.5381 0.0083-0.7852 0.01758-0.2328 0.0088-0.4651 0.01853-0.7344 0.01953l-5.104 5.803 8.801 8.758v9.154l10.27 11.29h5.867v-5.84l8.801-8.76v-5.842l5.867-5.838v-8.758zm-57.76 8.953v2e-3c-3.063 2.687-3.375 29.37-3.125 33.94-0.0822 3.497-0.0591 7.166-0.0332 11.15 0.0135 2.071 0.02734 4.229 0.02734 6.492v15.37l5.867 5.84h8.801l14.67 14.6v-17.52l8.799-8.758h5.867l8.801-8.762h8.801l-4.4-4.379 8.803-10.22-8.801-8.76h-13.2v11.68h-5.865l-5.869-5.84v-5.838l8.801-8.76h7.336v-5.84l-8.801-8.76h-14.67v8.76h-7.334zm155.3 8.566-8.799 8.76-5.867-5.84h-17.6l-8.799 8.76v7.297h8.799v-4.379h5.867v5.84l-2.934 2.918-11.73 0.1973-4.398 4.184h-5.867v5.84l-4.402 4.379v8.758h8.801l5.867-5.84h5.867v2.92l5.867 5.84h2.934v-2.92l-5.867-5.84h5.867l5.865 5.84h7.334l-4.4-4.379 4.4-4.379h4.402l4.398 4.379h-4.398l-4.4 4.379 4.32 4.301 0.0801 4.459h-5.867l17.6 17.52h2.932l2.934-2.918 5.867-5.84-5.867-5.84h8.801v-15.38c0-0.637 7e-3 -1.598 0.0137-2.812 0.034-6.321 0.1049-19.5-0.3301-29.52l-11.26-10.68zm-14.67 55.47h-17.6l-2.934-2.92h-17.6l-10.27 10.22v14.6l7.332 7.299h10.27l4.398 4.379v4.381l2.934 2.92v17.52l11.14 11.72 18.39-18.31-0.1973-16.77 14.67-14.6h-5.867l-14.67-14.6zm-57.2-40.87v4.379h8.799l-4.398-4.379zm26.4 1.459-4.4 4.379v4.381h4.4zm-45.47 16.06-4.4 4.379h4.4l1.467 1.461h1.467l1.467-1.461zm-24.93 30.66-4.4 4.381h8.799v-4.381zm-4.402 13.14-5.867 5.84v14.6l11.77 10.27-0.03906 13.09-4.4 4.381v18.98l2.244 2.4 2e-3 -2e-3c0.1865 0.013 0.3595 0.0289 0.5332 0.0449h2e-3c0.193 0.019 0.3869 0.0388 0.5977 0.0508 0.1589 0.01 0.3455 0.01 0.5332 0.0117 0.1811 2e-3 0.363 4e-3 0.5176 0.0117l-0.0293-5.436 19.07-17.52v-5.84l8.801-8.76v-4.377l4.398-4.381v-11.68l-5.865-5.84h-11.73l-5.867-5.84zm121.7 20.44-5.869 5.443v9.154h5.869z" fill="#458588" opacity=".4"/>
  <path d="m155.6 20.32h-100.5c-5.973 0-10.76 4.792-10.76 10.76v193c0 5.973 4.792 10.76 10.76 10.76h144.8c5.992 0 10.85-4.856 10.85-10.81v-148.9zm0-5.319h-100.5c-8.91 0-16.08 7.173-16.08 16.08v193c0 8.91 7.173 16.08 16.08 16.08h144.8c8.911 0 16.17-7.218 16.17-16.13l-2e-3 -148.9z" clip-rule="evenodd" fill="url(#paint2_linear)" fill-rule="evenodd"/>
  <path d="m128 68c5.508 0 10.82 0.7156 15.94 2.139 5.12 1.432 9.903 3.436 14.36 6.038 4.439 2.588 8.524 5.738 12.16 9.373 3.636 3.63 6.787 7.716 9.373 12.16 2.621 4.506 4.65 9.332 6.038 14.36 1.428 5.119 2.139 10.43 2.139 15.94s-0.716 10.82-2.139 15.94c-1.387 5.025-3.417 9.851-6.038 14.36-2.588 4.439-5.738 8.524-9.372 12.16-3.63 3.636-7.716 6.787-12.16 9.373-4.507 2.621-9.333 4.651-14.36 6.038-5.19 1.436-10.55 2.155-15.94 2.139-5.503 0-10.82-0.716-15.94-2.139-5.025-1.387-9.851-3.417-14.36-6.038-4.439-2.588-8.524-5.738-12.16-9.373-3.635-3.631-6.786-7.717-9.373-12.16-2.615-4.498-4.643-9.313-6.033-14.33-1.442-5.199-2.163-10.57-2.143-15.97 0-5.508 0.7166-10.82 2.144-15.94 1.386-5.026 3.414-9.851 6.033-14.36 2.588-4.438 5.738-8.524 9.372-12.16 3.631-3.637 7.718-6.788 12.16-9.373 4.497-2.617 9.311-4.646 14.32-6.038 5.198-1.44 10.57-2.16 15.96-2.139zm-52.5 60c0 5.196 0.72 10.2 2.164 15h21.27c-0.6222-4.976-0.9345-9.986-0.9389-15-0.0022-5.014 0.3111-10.02 0.9389-15h-21.27c-1.452 4.867-2.181 9.92-2.164 15zm35.33-49.63c-3.286 1.138-6.447 2.609-9.433 4.391-2.982 1.779-5.788 3.84-8.377 6.156-2.588 2.313-4.944 4.874-7.033 7.647-2.102 2.782-3.908 5.777-5.389 8.934h19.51c0.478-2.379 1.026-4.743 1.642-7.09 0.626-2.391 1.38-4.746 2.257-7.057 0.873-2.312 1.88-4.571 3.015-6.767 1.117-2.161 2.389-4.238 3.807-6.214zm-30.24 72.13c1.478 3.16 3.285 6.156 5.389 8.938 4.188 5.562 9.423 10.25 15.41 13.8 2.984 1.784 6.145 3.256 9.432 4.391-1.418-1.975-2.691-4.05-3.807-6.21-1.139-2.194-2.147-4.454-3.018-6.767-0.874-2.313-1.627-4.67-2.257-7.061-0.619-2.344-1.167-4.708-1.642-7.085h-19.51v-9e-3zm68.9-7.495c0.316-2.501 0.56-4.993 0.737-7.473 0.357-5.013 0.357-10.04 0-15.06-0.177-2.484-0.421-4.969-0.737-7.47h-43.01c-0.311 2.484-0.556 4.974-0.732 7.47-0.357 5.012-0.357 10.04 0 15.06 0.177 2.484 0.421 4.969 0.733 7.474h43zm-21.5-67.5c-1.902-0.0031-3.765 0.547-5.36 1.583-1.659 1.057-3.191 2.442-4.598 4.16-1.406 1.722-2.665 3.663-3.781 5.832-2.127 4.17-3.845 8.537-5.128 13.04-0.511 1.78-0.961 3.578-1.347 5.39h40.43c-0.861-4.031-2.037-7.988-3.516-11.84-0.868-2.249-1.856-4.45-2.96-6.593-1.049-2.072-2.316-4.027-3.777-5.832-1.301-1.624-2.855-3.029-4.602-4.16-1.597-1.035-3.46-1.585-5.364-1.582v-0.0011zm0 105c1.916 0 3.706-0.527 5.36-1.583 1.663-1.057 3.196-2.443 4.602-4.16 1.407-1.723 2.666-3.664 3.781-5.832 2.128-4.17 3.846-8.537 5.129-13.04 0.511-1.782 0.958-3.578 1.342-5.389h-40.42c0.86 4.03 2.034 7.987 3.511 11.83 0.871 2.249 1.859 4.45 2.96 6.594 1.116 2.168 2.375 4.109 3.781 5.832 1.407 1.717 2.939 3.107 4.598 4.16 1.663 1.052 3.449 1.583 5.36 1.583zm47.41-75c-1.48-3.158-3.286-6.152-5.388-8.934-4.188-5.562-9.424-10.25-15.41-13.8-2.985-1.785-6.145-3.257-9.433-4.391 1.418 1.975 2.69 4.051 3.807 6.211 1.138 2.194 2.146 4.453 3.019 6.766 0.873 2.313 1.627 4.67 2.257 7.061 0.623 2.383 1.171 4.745 1.637 7.086h19.51l1e-3 4e-3zm-30.24 72.13c3.286-1.135 6.447-2.606 9.431-4.391 2.984-1.78 5.791-3.841 8.383-6.156 2.588-2.313 4.942-4.874 7.031-7.647 2.102-2.782 3.908-5.776 5.389-8.934h-19.51c-0.479 2.379-1.027 4.743-1.643 7.09-0.625 2.391-1.377 4.747-2.252 7.058-0.873 2.312-1.88 4.571-3.015 6.766-1.117 2.162-2.39 4.239-3.81 6.214zm35.33-49.63c0-5.195-0.725-10.2-2.165-15h-21.27c0.62 4.976 0.932 9.985 0.934 15 3e-3 5.016-0.309 10.03-0.934 15h21.27c1.439-4.804 2.164-9.806 2.164-15h-2e-3z" clip-rule="evenodd" fill="url(#paint3_linear)" fill-rule="evenodd"/>
  <path d="m155.6 17v44.23c0 8.91 7.259 15.93 16.17 15.93l44.23-0.0112v-2l-60.4-58.15z" fill="#282828" opacity=".25"/>
  <path d="m155.6 15v44.23c0 8.91 7.259 15.93 16.17 15.93l44.23-0.0112-60.4-60.15z" fill="url(#paint4_linear)"/>
  <defs>
    <linearGradient id="paint2_linear" x1="126.4" x2="127.1" y1="14.91" y2="240.9" gradientUnits="userSpaceOnUse">
      <stop stop-color="#458588" offset="0"/>
      <stop stop-color="#076678" offset="1"/>
    </linearGradient>
    <linearGradient id="paint3_linear" x1="127.3" x2="127.6" y1="67.95" y2="188.4" gradientUnits="userSpaceOnUse">
      <stop stop-color="#458588" offset="0"/>
      <stop stop-color="#076678" offset="1"/>
    </linearGradient>
    <linearGradient id="paint4_linear" x1="185.4" x2="185.6" y1="14.98" y2="75.36" gradientUnits="userSpaceOnUse">
      <stop stop-color="#458588" offset="0"/>
      <stop stop-color="#076678" offset="1"/>
    </linearGradient>
  </defs>
</svg>
